src/icons/solid/communication/mail.svg

<svg width="24" height="24" viewBox="0 0 24 24" fill="none" xmlns="http://www.w3.org/2000/svg">
<g clip-path="url(#clip0_4191_726)">
<path fill-rule="evenodd" clip-rule="evenodd" d="M11.9954 14.5542C11.6924 14.5542 11.4014 14.4415 11.1841 14.24L2.31081 5.76125C2.25103 5.70386 2.20909 5.63176 2.18967 5.55298C2.17025 5.4742 2.17411 5.39182 2.20081 5.315C2.30164 5 2.57664 5 2.83331 5H21.1666C21.4141 5 21.6983 5 21.7991 5.315C21.8258 5.39182 21.8297 5.4742 21.8102 5.55298C21.7908 5.63176 21.7489 5.70386 21.6891 5.76125L12.8066 14.24C12.5893 14.4415 12.2983 14.5542 11.9954 14.5542ZM22.8075 6.57477C22.8401 6.57477 22.872 6.584 22.8991 6.60131C22.9296 6.61359 22.9555 6.63434 22.9735 6.66087C22.9915 6.6874 23.0007 6.71847 23 6.75006V17.2501C23 17.7142 22.8068 18.1593 22.463 18.4875C22.1192 18.8157 21.6529 19.0001 21.1666 19.0001H2.83333C2.3471 19.0001 1.88079 18.8157 1.53697 18.4875C1.19315 18.1593 1 17.7142 1 17.2501V6.75006C1.00567 6.72463 1.01784 6.70093 1.03543 6.68108C1.05303 6.66123 1.0755 6.64585 1.10083 6.63631C1.12797 6.619 1.15987 6.60977 1.1925 6.60977C1.22513 6.60977 1.25703 6.619 1.28417 6.63631L10.2125 15.1326C10.6895 15.58 11.3312 15.8313 12 15.8326C12.3302 15.8341 12.6574 15.773 12.9627 15.6529C13.268 15.5327 13.5452 15.3558 13.7783 15.1326L22.7158 6.60131C22.7429 6.584 22.7748 6.57477 22.8075 6.57477Z" fill="#3C3B44"/>
</g>
<defs>
<clipPath id="clip0_4191_726">
<rect width="24" height="24" fill="white"/>
</clipPath>
</defs>
</svg>

<svg xmlns="http://www.w3.org/2000/svg" width="24" height="24" fill="none" viewBox="0 0 24 24"><g clip-path="url(#a)"><path fill="currentColor" fill-rule="evenodd" d="M11.995 14.554a1.2 1.2 0 0 1-.81-.314L2.31 5.761a.42.42 0 0 1-.11-.446C2.3 5 2.577 5 2.833 5h18.334c.247 0 .531 0 .632.315a.42.42 0 0 1-.11.446l-8.882 8.479a1.2 1.2 0 0 1-.812.314m10.813-7.98a.17.17 0 0 1 .091.027q.046.02.075.06a.15.15 0 0 1 .026.09v10.5c0 .463-.193.908-.537 1.236-.344.329-.81.513-1.296.513H2.833c-.486 0-.952-.184-1.296-.512A1.7 1.7 0 0 1 1 17.25V6.75a.2.2 0 0 1 .035-.069.2.2 0 0 1 .066-.045.17.17 0 0 1 .183 0l8.929 8.497a2.62 2.62 0 0 0 1.787.7 2.6 2.6 0 0 0 .963-.18c.305-.12.582-.297.815-.52L22.716 6.6a.17.17 0 0 1 .091-.026" clip-rule="evenodd"/></g><defs><clipPath id="a"><path fill="currentColor" d="M0 0h24v24H0z"/></clipPath></defs></svg>
